app/dist/common/images/newmark-group.svg

<svg height="18" width="18" xmlns="http://www.w3.org/2000/svg"><path d="m0 0h18v18h-18z" fill="#d0103a"/><path d="m7.781 8.976 1.219-1.086v-1.89h-1.654l-1.41 1.232zm-1.747 1.797 1.29 1.227h1.676v-1.864l-1.219-1.16zm-1.297 1.227 1.297-1.227-1.77-1.682-1.264 1.045v1.864zm-1.737-4.11v-1.89h1.648l1.288 1.232-1.671 1.859zm7 4.11v-6h1.5l1.597 3h.403v-3h1.5v6h-1.5l-1.647-3h-.353v3z" fill="#fff"/></svg>

<!-- by TradingView --><svg width="18" height="18" xmlns="http://www.w3.org/2000/svg"><path fill="#D0103A" d="M0 0h18v18H0z"/><path d="M7.781 8.976L9 7.89V6H7.346l-1.41 1.232 1.845 1.744zm-1.747 1.797L7.324 12H9v-1.864l-1.219-1.16-1.747 1.797zM4.737 12l1.297-1.227-1.77-1.682L3 10.136V12h1.737zM3 7.89V6h1.648l1.288 1.232-1.671 1.859L3 7.89zM10 12V6h1.5l1.597 3h.403V6H15v6h-1.5l-1.647-3H11.5v3H10z" fill="#fff"/></svg>
